X:20
T:Green Cottage/ Perry's
T:Green Cottage
M:6/8
L:1/8
C:Jono Lonie
O:New Zealand
K:G
||:E3 B,EG|FED EFA|E3 B,EG|FED B,3|
E3 B,EG|FED EFA|BdB AFE|1 FGA FED:|2 FGA FGA|
|:BdB AFA|FBF AFE|BdB AFf|edB dBA|
BdB AFA|BFB AFA|gfe dBA|1 FGA FED:|2 FGA BGF||
T:Perry's
M:4/4
C:Jono Lonie
K:G
K:G
ef|:gB B/B/B dBAB|c2 Bc AGEG|D/D/D BD ADBD|c2 ec BcAf|
gB B/B/B dBAB|c2 Bc AGEG|D/D/D BD ADBD|AGEF G3 G:|:
GEDE G2 GA|c/c/c Bc AGEG|c2 ec B2 dB|AGAB AGEF|
GEDE G2 GA|c/c/c Bc AGEG|D/D/D BD ADBD|AGEF G3 :|

